!!!OTL: Haerzke, menj Haerzken, do faer iwerm Rech, woraem mess ech aenjden vun dir ewech ?
!!!ARE: Europa, Suedosteuropa, Rumaenien, Siebenbuergen
!!!SCT: D0198
!!!YEM: Copyright 1995, estate of Helmut Schaffrath.
**kern
*ICvox
*Ivox
*M3/4
*k[f#]
*G:
=1
{4dd
4.b
8cc
=2
4b
4a
8r}
{8g
=3
4b
4cc
4ee
=4
2dd}
{8ff#
8gg
=5
4aa
4.gg
8ee
=6
4gg
2dd}
=7
{4cc
4a
4cc
=8
2b}
{8ff#
8gg
=9
4aa
4.gg
8ee
=10
4gg
2dd}
=11
{4ccc
4bb
4aa
=12
2.gg}
==
!!!AGN: Liebes - Lied
!!!ONB: ESAC (Essen Associative Code) Database: DVA
!!!AMT: simple triple
!!!AIN: vox
!!!EED: Helmut Schaffrath
!!!EEV: 1.0
*-
